X:1
T:Polsk
T:(Totakt-pols, nr. JM-246)
S:efter J Mortensen
O:Svendborg amt, Danmark
R:Totakt-pols
Z:ABC-transkribering av Åke Persson
M:2/4
L:1/8
Q:1/4=108
K:D
A |: "D"dd d(f/d/) | "A"ee e(g/e/) | "D"dd d(f/d/) | "A"e/d/c/B/ A>A | "D"dd d(f/d/) | "A"ee e(g/e/) | "D"fd"A"ec | "D"d2 D2 :|
|: "D"ff f/g/a/f/ | "Em"a2 gg | "A"ee e/f/g/e/ | "D"g2 ff | "Hm"dd d(f/d/) | "Em"ee "A"e(g/e/) | "D"fd"A"ec | "D"d2 D2 :|

